X: 40154
T: Tim Hobin's
R: jig
M: 6/8
K: Adorian
|:ABA age|ABA gbg|ABA age|edc BAG|
ABA ~a3|ABA ~g3|def gfe|1 edc BAG:|2 edc bag||
|:a2b c'ba|bag ~a3|ebe ~a3|b2a ged|
ebe ~a3|bag gfe|def gfe|1 edc bag:|2 edc BAG||
|:cBA BAG|Acd ecA|cEc BAf|gfe dBG|
cBA BAG|Acd ecA|def gfe|edc BAG:|

